icons/svg/scan_24.svg

<?xml version="1.0" encoding="UTF-8"?>
<svg width="24px" height="24px" viewBox="0 0 24 24" version="1.1" xmlns="http://www.w3.org/2000/svg" xmlns:xlink="http://www.w3.org/1999/xlink">
    <!-- Generator: Sketch 57.1 (83088) - https://sketch.com -->
    <title>scan_24</title>
    <desc>Created with Sketch.</desc>
    <g id="New-Icon" stroke="none" stroke-width="1" fill="none" fill-rule="evenodd">
        <g id="scan_24" fill="#171B1F">
            <g id="fill">
                <path d="M0.5004,15.7368 C0.745733333,15.7368 0.949980247,15.9129975 0.992339643,16.1466985 L1.0004,16.2368 L1.0004,21.0788 C1.0004,22.0873714 1.78225941,22.917258 2.77152623,22.9940079 L2.9214,22.9998 L7.7634,22.9998 C8.0394,22.9998 8.2634,23.2238 8.2634,23.4998 C8.2634,23.7451333 8.08641235,23.9493802 7.85323813,23.9917396 L7.7634,23.9998 L2.9214,23.9998 C1.36793571,23.9998 0.0943553571,22.7807707 0.00536679118,21.2501098 L0.0004,21.0788 L0.0004,16.2368 C0.0004,15.9598 0.2234,15.7368 0.5004,15.7368 Z M23.5002,15.7366 C23.7455333,15.7366 23.9497802,15.9135877 23.9921396,16.1467619 L24.0002,16.2366 L24.0002,21.0786 C24.0002,22.6320643 22.7811707,23.9056446 21.2505098,23.9946332 L21.0792,23.9996 L16.2372,23.9996 C15.9602,23.9996 15.7372,23.7766 15.7372,23.4996 C15.7372,23.2542667 15.9133975,23.0500198 16.1470985,23.0076604 L16.2372,22.9996 L21.0792,22.9996 C22.0877714,22.9996 22.917658,22.2177406 22.9944079,21.2284738 L23.0002,21.0786 L23.0002,16.2366 C23.0002,15.9606 23.2242,15.7366 23.5002,15.7366 Z M23.5002,11.4998 C23.7762,11.4998 24.0002,11.7238 24.0002,11.9998 C24.0002,12.2451333 23.8232123,12.4493802 23.5900381,12.4917396 L23.5002,12.4998 L0.5002,12.4998 C0.2242,12.4998 0.0002,12.2758 0.0002,11.9998 C0.0002,11.7544667 0.177187654,11.5502198 0.410361866,11.5078604 L0.5002,11.4998 L23.5002,11.4998 Z M2.9212,1.687539e-14 L7.7632,1.687539e-14 C8.0402,1.687539e-14 8.2632,0.223 8.2632,0.5 C8.2632,0.745333333 8.08700247,0.949580247 7.85330151,0.991939643 L7.7632,1 L2.9212,1 C1.91262857,1 1.08274195,1.78185941 1.00599214,2.77112623 L1.0002,2.921 L1.0002,7.763 C1.0002,8.039 0.7762,8.263 0.5002,8.263 C0.254866667,8.263 0.0506197531,8.08601235 0.00826035665,7.85283813 L0.0002,7.763 L0.0002,2.921 C0.0002,1.36753571 1.21922934,0.0939553571 2.74989023,0.00496679118 L2.9212,1.687539e-14 L7.7632,1.687539e-14 Z M21.0793,-0.0002 C22.6893,-0.0002 24.0003,1.3108 24.0003,2.9208 L24.0003,2.9208 L24.0003,7.7628 C24.0003,8.0398 23.7763,8.2628 23.5003,8.2628 C23.2243,8.2628 23.0003,8.0398 23.0003,7.7628 L23.0003,7.7628 L23.0003,2.9208 C23.0003,1.8618 22.1383,0.9998 21.0793,0.9998 L21.0793,0.9998 L16.2373,0.9998 C15.9603,0.9998 15.7373,0.7758 15.7373,0.4998 C15.7373,0.2238 15.9603,-0.0002 16.2373,-0.0002 L16.2373,-0.0002 Z"></path>
            </g>
        </g>
    </g>
</svg>

<svg width="24" height="24" xmlns="http://www.w3.org/2000/svg"><path d="M.5 15.737a.5.5 0 01.492.41l.008.09v4.842c0 1.008.782 1.838 1.772 1.915l.15.006h4.841a.5.5 0 01.09.992l-.09.008H2.921a2.925 2.925 0 01-2.916-2.75L0 21.08v-4.842c0-.277.223-.5.5-.5zm23 0a.5.5 0 01.492.41l.008.09v4.842a2.925 2.925 0 01-2.75 2.916l-.17.005h-4.843a.499.499 0 01-.09-.992l.09-.008h4.842a1.924 1.924 0 001.915-1.772l.006-.15v-4.841a.5.5 0 01.5-.5zm0-4.237a.5.5 0 01.09.992l-.09.008H.5a.5.5 0 01-.09-.992L.5 11.5h23zM2.921 0h4.842a.499.499 0 01.09.992L7.763 1H2.921a1.924 1.924 0 00-1.915 1.771L1 2.921v4.842a.5.5 0 01-.992.09L0 7.763V2.921A2.925 2.925 0 012.75.005L2.92 0h4.842zM21.08 0A2.925 2.925 0 0124 2.92v4.843a.5.5 0 11-1 0V2.92A1.923 1.923 0 0021.08 1h-4.843a.5.5 0 110-1z" fill="#171B1F" fill-rule="evenodd"/></svg>
